src/lib/packages/icons/src/assets/filled/volume-minus.svg

<svg width="24" height="24" viewBox="0 0 24 24" fill="none" xmlns="http://www.w3.org/2000/svg">
<path d="M3.5 6.99989H5.26697C5.74097 6.99989 6.19906 6.83177 6.56006 6.52577L10.251 3.39882C11.336 2.47982 13.001 3.25099 13.001 4.67299V19.3268C13.001 20.7488 11.336 21.521 10.251 20.601L6.56006 17.474C6.19906 17.168 5.74097 16.9999 5.26697 16.9999H3.5C2.672 16.9999 2 16.3279 2 15.4999V8.50087C2 7.67187 2.672 6.99989 3.5 6.99989ZM22.75 11.9999C22.75 11.5859 22.414 11.2499 22 11.2499H17C16.586 11.2499 16.25 11.5859 16.25 11.9999C16.25 12.4139 16.586 12.7499 17 12.7499H22C22.414 12.7499 22.75 12.4139 22.75 11.9999Z" fill="currentColor"/>
</svg>

<svg xmlns="http://www.w3.org/2000/svg" width="24" height="24" fill="none"><path fill="currentColor" d="M3.5 7h1.767a2 2 0 0 0 1.293-.474l3.691-3.127c1.085-.92 2.75-.148 2.75 1.274v14.654c0 1.422-1.665 2.194-2.75 1.274l-3.69-3.127A2 2 0 0 0 5.266 17H3.5A1.5 1.5 0 0 1 2 15.5v-7A1.5 1.5 0 0 1 3.5 7Zm19.25 5a.75.75 0 0 0-.75-.75h-5a.75.75 0 0 0 0 1.5h5a.75.75 0 0 0 .75-.75Z"/></svg>
